src/assets/gui-ico/ico-vf.svg

<?xml version="1.0" encoding="UTF-8" standalone="no"?><!DOCTYPE svg PUBLIC "-//W3C//DTD SVG 1.1//EN" "http://www.w3.org/Graphics/SVG/1.1/DTD/svg11.dtd"><svg width="100%" height="100%" viewBox="0 0 68 68" version="1.1" xmlns="http://www.w3.org/2000/svg" xmlns:xlink="http://www.w3.org/1999/xlink" xml:space="preserve" xmlns:serif="http://www.serif.com/" style="fill-rule:evenodd;clip-rule:evenodd;stroke-linecap:round;stroke-miterlimit:1;"><rect id="ico-vf" x="0" y="0" width="68" height="68" style="fill:none;"/><g><g><path d="M48.522,54.31c-11.209,8.015 -26.817,5.422 -34.832,-5.788c-8.015,-11.209 -5.422,-26.817 5.788,-34.832c11.209,-8.015 26.817,-5.422 34.832,5.788c8.015,11.209 5.422,26.817 -5.788,34.832Zm-1.163,-1.627c10.312,-7.373 12.697,-21.731 5.324,-32.042c-7.373,-10.312 -21.731,-12.697 -32.042,-5.324c-10.312,7.373 -12.697,21.731 -5.324,32.042c7.373,10.312 21.731,12.697 32.042,5.324Z" style="fill:#5c5c5c;"/><path d="M47.106,52.329l-2.834,-3.963" style="fill:none;stroke:#5c5c5c;stroke-width:2px;"/></g><path d="M37.221,0.181c-1.651,-0.127 -3.094,1.11 -3.221,2.761c-0.127,1.651 1.111,3.094 2.762,3.221c1.651,0.127 3.094,-1.111 3.22,-2.762c0.127,-1.651 -1.11,-3.094 -2.761,-3.22Z" style="fill:#fff;"/><path d="M27.788,0.41l6.212,2.532l-5.753,3.45l-0.459,-5.982Z" style="fill:#fff;"/><path d="M38.709,3.804c-0.272,-0.043 -0.459,-0.298 -0.417,-0.571c0.042,-0.273 0.298,-0.46 0.57,-0.418c7.605,1.179 14.315,5.075 19.106,10.665c4.731,5.519 7.59,12.688 7.59,20.52c-0,8.709 -3.535,16.598 -9.248,22.31c-5.712,5.713 -13.601,9.248 -22.31,9.248c-8.709,-0 -16.598,-3.535 -22.31,-9.248c-5.713,-5.712 -9.248,-13.601 -9.248,-22.31c0,-7.832 2.859,-15.001 7.59,-20.52c4.791,-5.59 11.501,-9.486 19.106,-10.665c0.272,-0.042 0.528,0.145 0.57,0.418c0.042,0.273 -0.145,0.528 -0.417,0.571c-7.363,1.14 -13.861,4.914 -18.5,10.327c-4.58,5.344 -7.349,12.286 -7.349,19.869c0,8.433 3.423,16.072 8.955,21.603c5.531,5.532 13.17,8.955 21.603,8.955c8.433,-0 16.072,-3.423 21.603,-8.955c5.532,-5.531 8.955,-13.17 8.955,-21.603c-0,-7.583 -2.769,-14.525 -7.349,-19.869c-4.639,-5.413 -11.137,-9.187 -18.5,-10.327Z" style="fill:#fff;"/></g></svg>

<?xml version="1.0" encoding="UTF-8" standalone="no"?>
<!DOCTYPE svg PUBLIC "-//W3C//DTD SVG 1.1//EN" "http://www.w3.org/Graphics/SVG/1.1/DTD/svg11.dtd">
<svg width="100%" height="100%" viewBox="0 0 68 68" version="1.1" xmlns="http://www.w3.org/2000/svg" xmlns:xlink="http://www.w3.org/1999/xlink" xml:space="preserve" xmlns:serif="http://www.serif.com/" style="fill-rule:evenodd;clip-rule:evenodd;stroke-linecap:round;stroke-miterlimit:1;">
    <g transform="matrix(1,0,0,1,-151.124,-1)">
        <g id="ico-vf" transform="matrix(1.0546,0,0,1.0625,151.124,1)">
            <rect x="0" y="0" width="64.48" height="64" style="fill:none;"/>
            <g transform="matrix(1,0,0,1,1.89646,1.88235)">
                <g transform="matrix(-0.939446,0.666736,-0.671733,-0.932458,967.247,-349.452)">
                    <g transform="matrix(0.803922,0,0,0.803922,167.157,39.7059)">
                        <path d="M852.5,177C866.574,177 878,188.426 878,202.5C878,216.574 866.574,228 852.5,228C838.426,228 827,216.574 827,202.5C827,188.426 838.426,177 852.5,177ZM852.5,179.043C839.554,179.043 829.043,189.554 829.043,202.5C829.043,215.446 839.554,225.957 852.5,225.957C865.446,225.957 875.957,215.446 875.957,202.5C875.957,189.554 865.446,179.043 852.5,179.043Z" style="fill:white;"/>
                    </g>
                    <g transform="matrix(0.4,0,0,0.4,511.5,111.2)">
                        <path d="M852.5,182L852.5,192" style="fill:none;stroke:white;stroke-width:4.11px;"/>
                    </g>
                </g>
                <g transform="matrix(1.1549,0,0,1.1463,-954.205,-202.009)">
                    <g transform="matrix(0.821053,-0,-0,0.821053,824.584,174.584)">
                        <path d="M37.221,0.181C35.57,0.054 34.127,1.291 34,2.942C33.873,4.593 35.111,6.036 36.762,6.163C38.413,6.29 39.856,5.052 39.982,3.401C40.109,1.75 38.872,0.307 37.221,0.181Z" style="fill:rgb(92,92,92);"/>
                        <path d="M27.788,0.41L34,2.942L28.247,6.392L27.788,0.41Z" style="fill:rgb(92,92,92);"/>
                        <path d="M38.709,3.804C38.437,3.761 38.25,3.506 38.292,3.233C38.334,2.96 38.59,2.773 38.862,2.815C46.467,3.994 53.177,7.89 57.968,13.48C62.699,18.999 65.558,26.168 65.558,34C65.558,42.709 62.023,50.598 56.31,56.31C50.598,62.023 42.709,65.558 34,65.558C25.291,65.558 17.402,62.023 11.69,56.31C5.977,50.598 2.442,42.709 2.442,34C2.442,26.168 5.301,18.999 10.032,13.48C14.823,7.89 21.533,3.994 29.138,2.815C29.41,2.773 29.666,2.96 29.708,3.233C29.75,3.506 29.563,3.761 29.291,3.804C21.928,4.944 15.43,8.718 10.791,14.131C6.211,19.475 3.442,26.417 3.442,34C3.442,42.433 6.865,50.072 12.397,55.603C17.928,61.135 25.567,64.558 34,64.558C42.433,64.558 50.072,61.135 55.603,55.603C61.135,50.072 64.558,42.433 64.558,34C64.558,26.417 61.789,19.475 57.209,14.131C52.57,8.718 46.072,4.944 38.709,3.804Z" style="fill:rgb(92,92,92);"/>
                    </g>
                </g>
            </g>
        </g>
    </g>
</svg>
